flaticon/essential/windows-1.svg

<svg xmlns="http://www.w3.org/2000/svg" width="32" height="32" viewBox="0 0 24 24">
    <path d="M 21.199219 8 L 21.199219 5.199219 L 18.398438 5.199219 L 18.398438 2.398438 L 0 2.398438 L 0 16 L 2.800781 16 L 2.800781 18.800781 L 5.601562 18.800781 L 5.601562 21.601562 L 24 21.601562 L 24 8 Z M 0.800781 15.199219 L 0.800781 3.199219 L 17.601562 3.199219 L 17.601562 5.199219 L 2.800781 5.199219 L 2.800781 15.199219 Z M 3.601562 18 L 3.601562 6 L 20.398438 6 L 20.398438 8 L 5.601562 8 L 5.601562 18 Z M 23.199219 20.800781 L 6.398438 20.800781 L 6.398438 8.800781 L 23.199219 8.800781 Z M 23.199219 20.800781"/>
</svg>

<svg xmlns="http://www.w3.org/2000/svg" width="32" height="32" viewBox="0 0 24 24">
    <path d="M21.2 8V5.2h-2.802V2.397H0V16h2.8v2.8h2.802v2.802H24V8zM.8 15.2v-12h16.802v2H2.8v10zM3.603 18V6h16.796v2H5.602v10zm19.597 2.8H6.4v-12h16.8zm0 0"/>
</svg>
